images/mobile.svg

<svg width="75" height="130" viewBox="0 0 75 130" fill="none" xmlns="http://www.w3.org/2000/svg">
<path fill-rule="evenodd" clip-rule="evenodd" d="M16.5336 66.4553C16.5336 54.4767 16.5165 42.4977 16.5462 30.5191C16.5532 27.7691 16.718 25.0194 16.8155 22.2698C16.8412 21.5587 16.9159 21.1347 17.862 20.8468C21.87 19.626 26 19.4047 30.1096 19.0179C39.84 18.1025 49.5985 18.2729 59.3513 18.373C61.0616 18.3908 62.771 18.7354 64.4747 18.9761C65.1944 19.0779 65.806 19.3861 65.8749 20.2751C66.236 24.9048 66.8414 29.5288 66.9247 34.1631C67.1062 44.3133 67.0666 54.4685 67.0393 64.6215C67.0128 74.4788 66.7929 84.337 66.8545 94.1934C66.8777 97.9723 67.4216 101.751 67.7769 105.525C67.9316 107.176 67.7994 107.4 66.2221 107.341C58.5276 107.053 50.8343 106.718 43.1381 106.479C36.4109 106.27 29.7375 106.952 23.0837 107.903C21.7843 108.089 20.4506 108.012 19.1349 108.093C18.638 108.124 18.1337 108.213 17.6572 108.359C16.8718 108.599 16.4426 108.319 16.3394 107.527C16.2872 107.124 16.3088 106.71 16.3088 106.301C16.3076 93.019 16.308 79.737 16.308 66.4549C16.383 66.4553 16.4581 66.4553 16.5336 66.4553Z" fill="#E7E1D9"/>
<mask id="mask0_2_240" style="mask-type:luminance" maskUnits="userSpaceOnUse" x="0" y="0" width="75" height="130">
<path d="M0 0.179565H74.8085V129.587H0V0.179565Z" fill="white"/>
</mask>
<g mask="url(#mask0_2_240)">
<path fill-rule="evenodd" clip-rule="evenodd" d="M14.2092 126.393C14.2006 126.433 14.1912 126.472 14.1826 126.512C14.4879 126.61 14.7863 126.758 15.099 126.798C18.6313 127.251 22.1555 127.873 25.7027 128.077C29.5555 128.298 33.433 128.042 37.2961 128.143C47.026 128.397 56.7293 127.924 66.426 127.209C66.8932 127.174 67.4563 127.124 67.7916 126.852C69.4617 125.498 70.9318 124.002 71.6899 121.864C72.5264 119.505 72.6822 117.075 72.7219 114.634C72.785 110.774 72.6982 106.914 72.7195 103.054C72.792 89.9162 72.8867 76.7792 72.9645 63.6417C72.9699 62.7152 72.9047 61.7883 72.8768 60.8618C72.7191 55.597 72.4096 50.3318 72.4412 45.0687C72.4871 37.4288 72.8256 29.7914 72.9457 22.1511C73.001 18.6312 72.9121 15.1034 72.7432 11.5864C72.6051 8.71075 71.2822 6.64024 69.1969 5.68278C69.3494 6.06081 69.46 6.36373 69.592 6.65675C71.0625 9.92821 71.5957 13.3515 71.4789 16.9387C71.2068 25.2822 70.9244 33.6278 70.8428 41.9742C70.7309 53.4031 70.885 64.8344 70.7703 76.2629C70.6465 88.5435 70.3666 100.823 70.0904 113.102C70.0531 114.756 69.7797 116.438 69.3695 118.044C68.4768 121.539 66.7318 124.269 62.7031 124.58C60.8064 124.726 58.9096 124.877 57.0154 125.051C53.317 125.392 49.6244 125.824 45.9203 126.082C42.2477 126.336 38.5539 126.306 34.8871 126.612C30.0305 127.017 25.1834 127.225 20.3203 126.861C18.2826 126.709 16.2461 126.549 14.2092 126.393ZM3.03504 90.5307C3.03504 93.11 2.96536 98.1206 3.05676 103.128C3.13258 107.275 3.33299 111.421 3.60184 115.56C3.792 118.49 5.20471 120.86 7.76946 122.24C9.53053 123.188 11.4818 124.04 13.433 124.311C17.2518 124.842 21.1285 125.128 24.9838 125.159C28.7666 125.19 32.5506 124.751 36.3363 124.568C42.9154 124.249 49.4961 123.972 56.0752 123.667C59.2338 123.521 62.2592 122.867 65.067 121.317C66.0654 120.766 66.7977 120.06 67.0109 118.917C67.3232 117.244 67.7596 115.573 67.8592 113.884C68.0621 110.443 68.0973 106.992 68.1621 103.543C68.3297 94.5314 68.5272 85.5197 68.6178 76.5072C68.7318 65.1167 68.7408 53.7258 68.8215 42.3349C68.8391 39.8505 68.9908 37.3665 69.0453 34.8816C69.2125 27.2087 69.4412 19.5362 69.4914 11.8625C69.524 6.77726 66.5018 3.22764 61.5178 2.29205C59.6088 1.93424 57.6436 1.71799 55.7043 1.7166C48.5215 1.71262 41.3375 1.7931 34.1551 1.90164C26.2076 2.02173 18.2481 1.77081 10.3231 2.68741C8.16536 2.93668 5.95758 3.03697 4.6752 5.10789C3.97069 6.2457 3.2752 7.55272 3.12602 8.84776C2.56618 13.7007 1.85225 18.5837 1.8879 23.4503C1.98995 37.3578 1.73872 51.2707 2.55758 65.1749C3.00635 72.7987 2.86823 80.4567 3.03504 90.5307ZM1.07438 89.3252C0.925199 81.1121 1.02315 74.3108 0.632167 67.538C-0.160047 53.8199 0.018642 40.0965 0.0141338 26.3734C0.0124945 20.6976 0.231347 15.0271 1.35881 9.43627C1.93913 6.56018 3.06905 4.065 5.91864 2.75757C6.82602 2.34116 7.69651 1.92722 8.7584 2.36592C9.15553 2.52935 9.70102 2.35891 10.174 2.30154C13.674 1.881 17.1641 1.19551 20.6736 1.06922C32.1203 0.657764 43.5736 0.422526 55.026 0.1877C57.0412 0.146843 59.0957 0.252907 61.0752 0.611541C65.1371 1.34821 68.7215 3.233 71.849 5.92214C73.4412 7.29148 74.1604 9.26046 74.2313 11.2794C74.4637 17.9102 74.6002 24.5468 74.6346 31.1818C74.6576 35.5196 74.3178 39.8592 74.3572 44.1966C74.4268 51.8741 74.7535 59.549 74.801 67.2268C74.8477 74.7202 74.6637 82.2148 74.6121 89.709C74.5572 97.724 74.5625 105.739 74.492 113.754C74.4645 116.866 74.5301 120.039 73.1502 122.923C72.4133 124.464 71.4354 125.928 70.3568 127.254C69.3363 128.508 67.717 128.659 66.2035 128.755C61.3916 129.06 56.5793 129.445 51.7617 129.553C46.7924 129.665 41.8166 129.471 36.8441 129.444C32.9031 129.421 28.9625 129.467 25.0219 129.449C20.9453 129.43 16.9457 128.843 13.0842 127.51C9.10184 126.135 5.91741 123.49 3.29651 120.328C2.21413 119.023 1.82561 116.931 1.61618 115.138C1.23954 111.908 1.1379 108.635 1.09569 105.378C1.02028 99.5535 1.07438 93.7279 1.07438 89.3252Z" fill="#02374E"/>
</g>
<path fill-rule="evenodd" clip-rule="evenodd" d="M13.44 16.511V102.599C29.4239 99.0427 45.2573 99.5473 61.1535 100.478C61.1266 100.17 61.1135 99.8775 61.0735 99.5895C60.2992 93.979 60.0768 88.339 60.1719 82.6809C60.3951 69.4067 60.7051 56.1338 60.8055 42.8587C60.8581 35.9116 60.5538 28.962 60.3861 22.0145C60.338 20.0202 60.2037 18.0288 60.0952 15.7486C44.4005 14.3604 28.7887 14.4212 13.44 16.511ZM11.9684 61.8825C11.9684 49.9035 11.9512 37.9249 11.981 25.9464C11.9875 23.1959 12.1528 20.4467 12.2503 17.6966C12.2756 16.9855 12.3507 16.5619 13.2964 16.274C17.3048 15.0533 21.4348 14.8315 25.5444 14.4452C35.2748 13.5297 45.0333 13.7001 54.7861 13.7998C56.496 13.8176 58.2062 14.1622 59.9092 14.403C60.6293 14.5043 61.2404 14.8133 61.3098 15.7023C61.6712 20.3317 62.2759 24.956 62.3591 29.5899C62.5411 39.7401 62.5015 49.8957 62.4741 60.0487C62.4472 69.906 62.2277 79.7637 62.2889 89.6202C62.313 93.3994 62.8564 97.1779 63.2114 100.952C63.3668 102.604 63.2342 102.827 61.657 102.768C53.962 102.479 46.2691 102.145 38.5729 101.906C31.8453 101.697 25.1723 102.379 18.5181 103.33C17.2191 103.516 15.885 103.439 14.5697 103.52C14.0727 103.551 13.5681 103.641 13.092 103.786C12.3066 104.026 11.8774 103.746 11.7742 102.954C11.7219 102.551 11.7436 102.137 11.7436 101.728C11.7423 88.4458 11.7428 75.1641 11.7428 61.8821C11.8178 61.8821 11.8929 61.8825 11.9684 61.8825Z" fill="#02374E"/>
<path fill-rule="evenodd" clip-rule="evenodd" d="M31.9415 113.325C31.9877 113.563 32.0091 113.908 32.1223 114.214C32.6631 115.676 34.2304 116.737 35.6013 116.598C37.2958 116.428 38.8491 115.152 39.1706 113.601C39.2585 113.177 39.2981 112.665 39.1586 112.278C38.7834 111.236 38.3973 110.171 37.8351 109.243C37.0244 107.905 35.9241 107.632 34.564 108.309C32.6308 109.272 32.1495 111.166 31.9415 113.325ZM36.1181 107.136C37.8129 107.279 39.2635 109.147 40.4852 111.243C41.4689 112.932 41.1699 114.695 40.143 116.234C38.8708 118.14 37.0559 119.077 34.8793 118.865C32.7148 118.655 31.1829 117.343 30.3407 115.191C28.9892 111.738 31.8101 107.133 36.1181 107.136Z" fill="#02374E"/>
<path fill-rule="evenodd" clip-rule="evenodd" d="M30.2708 7.47464C32.7117 9.61356 42.1675 9.40643 43.9276 7.16926C43.5227 7.03226 43.1671 6.84553 42.7937 6.7966C40.0693 6.4378 37.3484 5.99665 34.611 5.8095C33.0147 5.70023 31.5535 6.40274 30.2708 7.47464ZM38.0713 4.57288C40.0276 4.87622 41.9908 5.14287 43.9369 5.50045C44.7808 5.65538 45.7015 6.11285 45.6501 7.05387C45.6129 7.73314 45.0915 8.54695 44.5429 9.00523C43.0785 10.228 41.2222 10.5346 39.4091 10.4347C36.9224 10.2981 34.4508 9.88877 31.9738 9.58583C31.7246 9.55525 31.4763 9.4733 31.2412 9.38034C30.4047 9.04845 29.4083 8.82054 29.3505 7.6838C29.2906 6.5169 30.2566 6.22742 31.1057 5.89308C33.3343 5.01566 35.6433 4.67032 38.0341 4.87663C38.0466 4.77551 38.0587 4.6744 38.0713 4.57288Z" fill="#02374E"/>
</svg>

<svg  xmlns="http://www.w3.org/2000/svg" xmlns:xlink="http://www.w3.org/1999/xlink"  height="130" viewBox="0 0 75 145" class="css-7jmnh7"><defs><path id="phone_svg__a" d="M0 .18h74.809v129.407H0z"></path></defs><g fill="none" fill-rule="evenodd"><path d="M16.534 81.455c0-11.978-.018-23.957.012-35.936.007-2.75.172-5.5.27-8.25.025-.71.1-1.134 1.046-1.422 4.008-1.221 8.138-1.442 12.248-1.83 9.73-.915 19.488-.744 29.241-.644 1.71.018 3.42.362 5.124.603.72.102 1.331.41 1.4 1.299.361 4.63.966 9.254 1.05 13.888.181 10.15.142 20.305.114 30.458-.026 9.858-.246 19.716-.185 29.572.024 3.78.568 7.558.923 11.332.155 1.651.022 1.875-1.555 1.816-7.694-.288-15.388-.623-23.084-.862-6.727-.21-13.4.473-20.054 1.424-1.3.186-2.633.109-3.95.19-.496.03-1 .12-1.477.266-.785.24-1.214-.04-1.318-.832-.052-.403-.03-.817-.03-1.226l-.001-39.846h.226" fill="#E7E1D9"></path><g transform="translate(0 15)"><mask id="phone_svg__b" fill="#fff"><use xlink:href="#phone_svg__a"></use></mask><path d="M14.21 126.392l-.027.12c.305.098.603.246.916.286 3.532.452 7.057 1.075 10.604 1.279 3.853.22 7.73-.035 11.593.066 9.73.254 19.433-.22 29.13-.934.467-.035 1.03-.085 1.366-.357 1.67-1.354 3.14-2.85 3.898-4.988.836-2.36.992-4.79 1.032-7.23.063-3.86-.024-7.72-.003-11.58.073-13.138.168-26.275.245-39.412.006-.927-.06-1.854-.087-2.78-.158-5.265-.467-10.53-.436-15.793.046-7.64.385-15.278.505-22.918.055-3.52-.034-7.048-.203-10.565-.138-2.875-1.46-4.946-3.546-5.903.152.378.263.68.395.974 1.47 3.271 2.004 6.694 1.887 10.282-.272 8.343-.555 16.689-.636 25.035-.112 11.429.042 22.86-.073 34.289-.123 12.28-.403 24.56-.68 36.838-.037 1.655-.31 3.337-.72 4.943-.893 3.495-2.638 6.225-6.667 6.535a385.43 385.43 0 00-5.688.472c-3.698.341-7.39.773-11.095 1.03-3.672.255-7.366.225-11.033.531-4.856.405-9.704.613-14.567.25-2.037-.153-4.074-.313-6.11-.47M3.034 90.531c0 2.579-.07 7.59.022 12.597.076 4.147.276 8.293.545 12.432.19 2.93 1.603 5.3 4.167 6.68 1.762.947 3.713 1.8 5.664 2.071 3.819.531 7.695.817 11.55.848 3.784.03 7.568-.408 11.353-.592 6.58-.319 13.16-.595 19.74-.9 3.158-.146 6.183-.8 8.991-2.35.998-.55 1.73-1.257 1.944-2.4.312-1.673.749-3.344.848-5.033.203-3.44.238-6.893.303-10.34.168-9.013.365-18.024.456-27.037.114-11.39.123-22.781.204-34.172.017-2.485.169-4.969.223-7.453.168-7.673.396-15.346.446-23.02.033-5.085-2.99-8.634-7.973-9.57-1.91-.358-3.874-.574-5.814-.575-7.182-.004-14.367.076-21.549.185-7.947.12-15.907-.131-23.832.785-2.158.25-4.365.35-5.648 2.42-.704 1.139-1.4 2.446-1.549 3.74-.56 4.854-1.274 9.737-1.238 14.603.102 13.908-.15 27.82.67 41.725.448 7.624.31 15.282.477 25.356m-1.96-1.206c-.15-8.213-.052-15.014-.443-21.787C-.16 53.82.02 40.096.014 26.373.013 20.697.231 15.027 1.36 9.436c.58-2.876 1.71-5.371 4.56-6.679.907-.416 1.778-.83 2.84-.391.397.163.942-.007 1.415-.065 3.5-.42 6.99-1.106 10.5-1.232C32.12.658 43.574.422 55.026.188c2.015-.041 4.07.065 6.05.423 4.061.737 7.646 2.622 10.773 5.311 1.592 1.37 2.311 3.338 2.382 5.357.233 6.631.37 13.268.404 19.903.023 4.338-.317 8.677-.278 13.015.07 7.677.396 15.352.444 23.03.047 7.493-.137 14.988-.189 22.482-.055 8.015-.05 16.03-.12 24.045-.027 3.112.038 6.285-1.342 9.169-.737 1.541-1.715 3.005-2.793 4.331-1.02 1.254-2.64 1.405-4.154 1.5-4.811.306-9.624.69-14.441.799-4.97.112-9.945-.082-14.918-.11-3.94-.022-7.882.024-11.822.005-4.077-.018-8.076-.605-11.938-1.938-3.982-1.375-7.167-4.02-9.787-7.182-1.083-1.306-1.471-3.397-1.68-5.19-.377-3.23-.48-6.503-.521-9.76-.076-5.825-.022-11.65-.022-16.053" fill="#02374E" mask="url(#phone_svg__b)"></path></g><path d="M13.44 31.511v86.088c15.984-3.556 31.817-3.052 47.714-2.12-.027-.31-.04-.602-.08-.89-.775-5.61-.997-11.25-.902-16.908.223-13.274.533-26.547.633-39.822.053-6.947-.251-13.897-.419-20.845-.048-1.994-.182-3.985-.29-6.265C44.4 29.36 28.788 29.42 13.44 31.51m-1.472 45.371c0-11.979-.017-23.957.013-35.936.007-2.75.172-5.5.27-8.25.025-.71.1-1.134 1.045-1.422 4.009-1.22 8.139-1.443 12.248-1.829 9.73-.915 19.49-.745 29.242-.645 1.71.018 3.42.362 5.123.603.72.101 1.331.41 1.4 1.3.362 4.629.967 9.253 1.05 13.887.182 10.15.142 20.306.115 30.459-.027 9.857-.246 19.715-.185 29.571.024 3.78.567 7.558.922 11.332.156 1.651.023 1.875-1.554 1.816-7.695-.289-15.388-.623-23.084-.862-6.728-.21-13.4.473-20.055 1.424-1.299.186-2.633.109-3.948.19a6.475 6.475 0 00-1.478.266c-.785.24-1.215-.04-1.318-.832-.052-.403-.03-.817-.03-1.226-.002-13.282-.001-26.564-.001-39.846h.225M31.941 128.325c.047.238.068.583.181.889.541 1.462 2.108 2.523 3.48 2.384 1.694-.17 3.247-1.446 3.569-2.997.087-.424.127-.936-.012-1.323-.376-1.042-.762-2.107-1.324-3.035-.81-1.338-1.91-1.61-3.271-.934-1.933.963-2.415 2.857-2.623 5.016m4.177-6.19c1.695.144 3.146 2.012 4.367 4.108.984 1.689.685 3.452-.342 4.991-1.272 1.906-3.087 2.843-5.264 2.631-2.164-.21-3.696-1.522-4.538-3.674-1.352-3.453 1.47-8.058 5.777-8.055M30.27 22.475c2.442 2.139 11.898 1.931 13.658-.306-.405-.137-.76-.323-1.134-.372-2.725-.36-5.446-.8-8.183-.988-1.596-.109-3.057.594-4.34 1.666m7.8-2.902c1.957.303 3.92.57 5.866.927.844.155 1.764.613 1.713 1.554-.037.68-.559 1.493-1.107 1.951-1.464 1.223-3.32 1.53-5.134 1.43-2.487-.137-4.958-.546-7.435-.85a3.033 3.033 0 01-.733-.205c-.836-.332-1.833-.56-1.89-1.696-.06-1.167.906-1.457 1.755-1.79a15.122 15.122 0 016.928-1.017l.037-.304" fill="#02374E"></path></g></svg>
